src/categories-icons-sprite/categories/svg-cat-anim-clothes.svg

<svg width="29" height="26" viewBox="0 0 29 26" fill="none" xmlns="http://www.w3.org/2000/svg">
<path class="p-FD4B2D" d="M2.62487 10.3152C3.17403 9.96772 3.80425 9.64459 4.51258 9.35067C7.186 8.24138 10.7221 7.63044 14.4696 7.63044C18.217 7.63044 21.7531 8.24138 24.4265 9.35067C25.1349 9.64459 25.7651 9.96772 26.3143 10.3152C28.0211 9.2352 28.9391 10.2304 28.9391 6.5C28.9391 4.62517 27.3365 2.92766 24.4265 1.72024C21.7531 0.610944 18.217 0 14.4696 0C10.7221 0 7.186 0.610944 4.51258 1.72024C1.60262 2.92766 0 4.62517 0 6.5C0 10.7391 0.918026 9.2352 2.62487 10.3152Z" fill="#5FBEFF"/>
<path class="p-E8130F" d="M24.4267 1.72024C22.6833 0.996868 20.5732 0.485413 18.2768 0.217095C16.1839 -0.0274399 14.4697 1.70813 14.4697 3.81522C14.4697 5.9223 16.1839 7.603 18.2768 7.84753C20.5732 8.11585 22.6833 8.6273 24.4267 9.35067C25.135 9.64459 25.7653 9.96772 26.3144 10.3152C28.0213 9.2352 28.9393 10.2304 28.9393 6.5C28.9393 4.62517 27.3367 2.92766 24.4267 1.72024Z" fill="#4D98CB"/>
<path class="p-FF6849" d="M24.4265 11.2798C21.7531 12.3891 18.217 13 14.4696 13C10.7221 13 7.186 12.3891 4.51258 11.2798C1.60262 10.0723 0 8.37483 0 6.5V13.2826C0 15.1574 1.60262 16.855 4.51258 18.0624C7.186 19.1717 10.7221 19.7826 14.4696 19.7826C18.217 19.7826 21.7531 19.1717 24.4265 18.0624C27.3365 16.855 28.9391 15.1574 28.9391 13.2826V6.5C28.9391 8.37483 27.3365 10.0723 24.4265 11.2798Z" fill="#A1D1FD"/>
<path class="p-FD4B2D" d="M24.4266 11.2798C21.7532 12.3891 18.2172 13 14.4697 13C12.5968 13 9.17011 13.9291 9.22127 16.3913C9.28587 19.5 12.5968 19.7826 14.4697 19.7826C18.2172 19.7826 21.7532 19.1717 24.4266 18.0624C27.3367 16.855 28.9393 15.1574 28.9393 13.2826V6.5C28.9393 8.37483 27.3367 10.0723 24.4266 11.2798Z" fill="#58ADE5"/>
<path class="p-FFEA84" d="M14.469 26C11.9757 26 9.94727 23.9716 9.94727 21.4783C9.94727 18.985 11.9757 16.9565 14.469 16.9565C16.9623 16.9565 18.9907 18.985 18.9907 21.4783C18.9907 23.9716 16.9623 26 14.469 26Z" fill="#B9DFFC"/>
<path class="p-FFDC40" d="M14.4697 16.9565V26C16.963 26 18.9915 23.9716 18.9915 21.4783C18.9915 18.985 16.963 16.9565 14.4697 16.9565Z" fill="#5FBEFF"/>
<path class="p-FFAB15" d="M15.3177 22.4067H13.6221V25.1521H15.3177V22.4067Z" fill="#4D98CB"/>
</svg>

<svg width="29" height="26" fill="none" xmlns="http://www.w3.org/2000/svg"><path class="p-FD4B2D" d="M2.625 10.315c.549-.347 1.18-.67 1.888-.964 2.673-1.11 6.21-1.72 9.957-1.72 3.747 0 7.283.61 9.957 1.72.708.294 1.338.617 1.887.964 1.707-1.08 2.625-.085 2.625-3.815 0-1.875-1.602-3.572-4.512-4.78C21.753.61 18.216 0 14.47 0c-3.748 0-7.284.61-9.957 1.72C1.603 2.928 0 4.625 0 6.5c0 4.24.918 2.735 2.625 3.815z" fill="#5FBEFF"/><path class="p-E8130F" d="M24.427 1.72C22.683.997 20.573.485 18.277.217c-2.093-.244-3.807 1.491-3.807 3.598 0 2.107 1.714 3.788 3.807 4.033 2.296.268 4.406.78 6.15 1.503a12.47 12.47 0 011.887.964c1.707-1.08 2.625-.085 2.625-3.815 0-1.875-1.602-3.572-4.512-4.78z" fill="#4D98CB"/><path class="p-FF6849" d="M24.427 11.28C21.753 12.39 18.216 13 14.47 13c-3.748 0-7.284-.61-9.957-1.72C1.603 10.072 0 8.375 0 6.5v6.783c0 1.874 1.603 3.572 4.513 4.78 2.673 1.109 6.21 1.72 9.957 1.72 3.747 0 7.283-.611 9.957-1.72 2.91-1.208 4.512-2.906 4.512-4.78V6.5c0 1.875-1.602 3.572-4.512 4.78z" fill="#A1D1FD"/><path class="p-FD4B2D" d="M24.427 11.28C21.753 12.39 18.217 13 14.47 13c-1.873 0-5.3.93-5.249 3.391.065 3.109 3.376 3.392 5.249 3.392 3.747 0 7.283-.611 9.957-1.72 2.91-1.208 4.512-2.906 4.512-4.78V6.5c0 1.875-1.602 3.572-4.512 4.78z" fill="#58ADE5"/><path class="p-FFEA84" d="M14.469 26a4.527 4.527 0 01-4.522-4.522 4.527 4.527 0 014.522-4.522 4.527 4.527 0 014.522 4.522A4.527 4.527 0 0114.469 26z" fill="#B9DFFC"/><path class="p-FFDC40" d="M14.47 16.956V26a4.527 4.527 0 004.521-4.522 4.527 4.527 0 00-4.521-4.522z" fill="#5FBEFF"/><path class="p-FFAB15" d="M15.318 22.407h-1.696v2.745h1.696v-2.745z" fill="#4D98CB"/></svg>
